X: 10072
T: MRS. M'LEOD OF ELANREOCH'S STRATHSPEY
R: strathspey
B: K\"ohler's Violin Repository, v.1, 1885 p.7 #2
F: http://www.archive.org/details/klersviolinrepos01edin
Z: 2011 John Chambers <jc:trillian.mit.edu>
M: C
L: 1/8
K: D
A |\
A |\
d>gf>e d<BA>d | B<Fe>F B<EE>c | d>efd f<ae>f | d/c/B/A/ d>F D/D/(D D :|
(3d/c/B/) |\
A<DA>F A<DD>d | ~B>c d<F B<EE>d | A<DA>F A<DD>d | ~B>c d>F D/D/(D Dd) |
A<DA>F A<DD>d | ~B>c d>F B<EE>d | A<DA>F D/E/F/G/ A>g & xxxx D>F xx | f>de>f d/d/(dd) |]

%%sep 2 1 500

